X: 1389
T: Don McBain's Jig
B: australian traditional tunes wiki
M:6/8
L:1/8
R: Jig
Q: 3/8=100
K:D
V:1 
d2e|:"D"f2A ABA|"G"Bdd BdB|"D"AFF FED|FAF"A7"E2e|
"D"e2A ABA|"G"Bdd BdB|"D"AdA "A7"EAE|1"D"D2DD2e:|2"D"D2DD3||
|:"D"F2A ABF|"G"G2BB2G|"D"F2A AAF|"A7"G2EE2E|
"D"F2A AAF|"G"B2AB2c|"D"ddA "A7"GGE|"D"D2DD3:|
% abcbook-tune_id 6342d53a17292de06d00302d


% abcbook-boost 0
% abcbook-tablature 
% abcbook-transpose 
% abcbook-lastupdated 1665324362663
% abcbook-soundfonts 
% abcbook-repeats 1
% NFF Book 2010

